X: 7759
T: Comb Your Hair And Curl It
R: slip jig
M: 9/8
K: Edorian
|:B2E E2F G2A|Bcd e2c d3|B2E E2F G2A|~B3 ABG FED:|
|:g2e e2d efg|f2d d2c def|g2e e2d e2c|dcB AGF G2E:|

